X:1
T:38
T:Hugo Distler
T:Unknown (16th cent.)
T:38.  Kyrie, God, Father Eternal Kyrie, Gott Vater in Ewigkeit Day of Atonement
T:Bärenreiter
T:Bärenreiter
T:Bärenreiter
T:Bärenreiter
T:Bärenreiter
T:Bärenreiter
C:Hugo Distler
Z:Unknown
Z:(16th cent.)
Z:Bärenreiter
%%score [ ( 1 2 ) ( 3 4 ) ( 5 6 ) ]
L:1/8
Q:1/4=72
M:4/4
K:C
V:1 treble nm="Sop."
V:2 treble 
V:3 treble nm="Alto"
V:4 treble 
V:5 bass nm="Bar."
V:6 bass 
V:1
 G4 (A2 B2) | !breath!B4 A4 | c4 cc (B2- | BA G2 A4) | G8 | z8 | A3 A (A(G) F2- | %7
w: Ky- ri- *|e, God,|Fa- ther e- ter-||nal,||great is Thy _ mer-|
 F2 E2) !breath!D2 DD | A3 G A2 B2 | c2 B2 (A2 G2- | G2 ^F2) !breath!G4 | (G4 =F2) (A2- | %12
w: * * cy, of all|things the Shep- herd|and the Sov- *|* * 'reign.|E- * le-|
 AB) A2 E4 ||[M:3/2] (E4 D4) A2 A2 | AA !breath!A3 c c2 BA G2 | A2 A2 B6 z2 | z2 E2 (G3 A/B/) A4 | %17
w: * * i- son!|Chri- ste, Com- fort|of the world, of sin- ners our sole|re- deem- er.|O Je- * * su,|
 z2 E2 G2 A2 c2 c2 | !breath!c2 c2 B3 A G2 A2 | c2 (B3 A) G2 A4 |[M:5/4] !breath!G2 G2 A2 (G2 F2- | %21
w: O Je- su, Son of|God, our in- ter- cess- or,|our in- * ter- ces-|sor to the throne _|
[M:4/4] F2 ED E2) E2 |[M:6/4] !breath!D2 D2 A4 A2 A2- | ABcB (A2 !breath!G2) (G4 | %24
w: _ _ _ _ of|God, to Thee we cry,|_ our hearts' de- sire. _ E-|
 F2) (A3 B) A2 E4 ||[M:4/4] B6 c2 | !breath!d4 B2 (d2- | d2 e2 c3 B | AG A3) A A2 | !breath!G8 | %30
w: * le- * i- son!|Ky- ri-|e, God, Ho-||* * * ly Spi-|rit,|
 B4 B4 | c3 c d2 B2 | (d3 c B2) A2- | A2 A2 G4 | z4 DDAA | AG !breath!A6 | AAcc dd (A2- | %37
w: com- fort,-|strength- en us in|faith _ _ most|_ of all,|that we may de-|part in joy,|that we may de- part in joy|
 AG)AB (c4- | c2 B2) A4 | !breath!G4 (G4 | F2) (A3 B) A2 | E8 |] %42
w: _ _ from this vale|_ _ of|tears. E-|* le- * i-|son.|
V:2
 x8 | x8 | x8 | x8 | x8 | x8 | x8 | x8 | x8 | x8 | x8 | x8 | x8 ||[M:3/2] x12 | x12 | A2 A2 E6 x2 | %16
 x12 | x12 | x12 | x12 |[M:5/4] x10 |[M:4/4] x8 |[M:6/4] x12 | x12 | x12 ||[M:4/4] x8 | x8 | x8 | %28
 x8 | x8 | x8 | x8 | x8 | x8 | x8 | x8 | x8 | x8 | x8 | x8 | x8 | x8 |] %42
V:3
 z8 | z8 | z2 E2 F F2 F | (E3 D C2 D2) | E2 E3 E (DE) | C4 !breath!B,2 E2 | (F2 E3 C D2 | %7
w: ||God, Fa- ther e-|ter- * * *|nal, great is Thy _|mer- cy, Thy|mer- * * *|
 B,2) !breath!A,2 A,A, D2- | DE (^F3 E) D2 | E^F (G2 A4- | A4) !breath!G4 | E2 (E4 D2) | %12
w: * cy, of all things|_ the shep- * herd|and the Sov- *|* 'reign.|E- le- *|
 B,4 (A,2 B,2) ||[M:3/2] z12 | (C4 A,4) E2 E2 | EE !breath!E3 G G2 FF E2 | D2 C2 E4 z2 A,2 | %17
w: i- son! _||Chri- ste, Com- fort|of the world, of sin- ners our sole|re- deem- er, O|
 (D3 E/F/) E2 FD !breath!A2 G2 | FF E2 !breath!D2 G4 (F2 | E3 D) C2 D4 !breath!E2 | %20
w: Je- * * su, Son of God, our|in- ter- ces- sor, our in-|* * ter- ces- sor|
[M:5/4] EE (D2 F2 E2) E2 |[M:4/4] !breath!D2 DD D2 ^C2 |[M:6/4] !breath!D2 _B,2 A,2 F2 E3 D | %23
w: to the throne _ _ of|God, to the throne of|God, to Thee we cry, our|
 (EGE)D !breath!E4 E4 | (E2 D2) B,4 (A,2 B,2) ||[M:4/4] D4 E4 | !breath!G6 ^F2- | %27
w: hearts' _ _ de- sire. E-|le- * i- son! _|Ky- ri-|e, ky-|
 F2 G2 !breath!AA (G^F | E)D (E3 ^F GA) | !breath!B8 | G4 G4 | E3 E G3 G | (AG) (^F4 E2) | %33
w: * ri- e, God, Ho- *|* ly Spi- * * *|rit,|com- fort,|strength- en us in|true _ faith _|
 C2 D2 !breath!E4 | A3 A G2 F2- | F2 E2 !breath!D2 D2- | D2 A2 G2 AA | (EF)DC (E2 FG | %38
w: most of all,|that at our end|_ of days we|_ may de- part in|joy _ from this vale _ _|
 A2) (G4 ^F2) | !breath!G4 E4 | (E2 D2) B,4 | (A,4 B,4) |] %42
w: _ of _|tears. E-|le- * i-|son. _|
V:4
 x8 | x8 | x8 | x8 | x8 | x8 | x8 | x8 | x8 | x8 | x8 | x8 | x4 A,2 ^G,2 ||[M:3/2] x12 | x12 | %15
 x12 | x12 | x12 | x12 | x12 |[M:5/4] x10 |[M:4/4] x8 |[M:6/4] x12 | x12 | x8 A,2 ^G,2 || %25
[M:4/4] x8 | x8 | x8 | x8 | x8 | x8 | x8 | x8 | x8 | x8 | x8 | x8 | x8 | x8 | x8 | x8 | A,4 ^G,4 |] %42
V:5
 z8 | z8 | z8 | z4 z2 A,2 | C2 CC (B,4- | B,2 A,4 G,2) | A,4 z4 | z2 C,C, G,3 F, | %8
w: |||God,|Fa- ther e- ter-||nal,|of all things the|
 E,2 D,2 z2 D,D, | A,3 G, =F,2 E,2 | D,C, D,2 !breath!G,4 | z2 E,2 (A,3 G, | F,E,) D,2 E,4 || %13
w: Shep- herd, of all|things the Shep- herd|and the Sov- 'reign.|E- le- *|* * i- son!|
[M:3/2] z12 | z12 | z12 | z12 | z12 | z12 | z12 |[M:5/4] z10 |[M:4/4] z8 |[M:6/4] z12 | %23
w: ||||||||||
 z4 z4 z2 E,2 | (A,3 G, F,E,) D,2 E,4 ||[M:4/4] B,4 A,4 | !breath!G,4 B,4 | %27
w: E-|* * * le- i- son!|3. Ky- ri-|e, ky-|
 A,2 !breath!G,2 =F,2 C,2- | C,2 C,2 E,4 | !breath!G,8 | E,4 E,4 | C,3 C, G,4 | G,2 (D,4 E,2) | %33
w: ri- e, God, Ho-|* ly Spi-|rit,|com- fort,|strength- en us|in faith _|
 F,2 F,2 !breath!C,2 C2- | CC C2 _B,2 D2 | A,4 z4 | z4 z2 D,2 | A,3 G, A,4 | F,2 C,2 D,2 D,2 | %39
w: most of all, that|_ at our end of|days,|de-|part in joy|from this vale of|
"^( )" G,4 z2 E,2 | (A,3 G, F,E,) D,2 | E,8 |] %42
w: tears. E-|le- * * * i-|son.|
V:6
 x8 | x8 | x8 | x8 | x8 | x8 | x8 | x8 | x8 | x8 | x8 | x8 | x8 ||[M:3/2] x12 | x12 | x12 | x12 | %17
 x12 | x12 | x12 |[M:5/4] x10 |[M:4/4] x8 |[M:6/4] x12 | x12 | x12 ||[M:4/4] x8 | x8 | x8 | x8 | %29
 x8 | x8 | x8 | x8 | x8 | x8 | x8 | x8 | x8 | x8 | G,,4 x4 | x8 | x8 |] %42

